_includes/svg/twitter.svg

<svg width="48" height="48" xmlns="http://www.w3.org/2000/svg"><g fill-rule="nonzero" fill="none"><circle fill="#1CB7EB" cx="24" cy="24" r="24"/><path d="M36.8 15.4c-.9.5-2 .8-3 .9 1.1-.7 1.9-1.8 2.3-3.1-1 .6-2.1 1.1-3.4 1.4-1-1.1-2.3-1.8-3.8-1.8-2.9 0-5.3 2.5-5.3 5.7 0 .4 0 .9.1 1.3-4.4-.2-8.3-2.5-10.9-5.9-.5.8-.7 1.8-.7 2.9 0 2 .9 3.7 2.3 4.7-.9 0-1.7-.3-2.4-.7v.1c0 2.7 1.8 5 4.2 5.6-.4.1-.9.2-1.4.2-.3 0-.7 0-1-.1.7 2.3 2.6 3.9 4.9 3.9-1.8 1.5-4.1 2.4-6.5 2.4-.4 0-.8 0-1.3-.1 2.3 1.6 5.1 2.6 8.1 2.6 9.7 0 15-8.6 15-16.1v-.7c1.2-1 2.1-2 2.8-3.2z" fill="#FFF"/></g></svg>

<?xml version="1.0" encoding="UTF-8" standalone="no"?>
<svg width="48px" height="48px" viewBox="0 0 48 48" version="1.1" xmlns="http://www.w3.org/2000/svg" xmlns:xlink="http://www.w3.org/1999/xlink">
    <g id="Page-1" stroke="none" stroke-width="1" fill="none" fill-rule="evenodd">
        <g id="twitter" fill-rule="nonzero">
            <circle id="Oval" fill="#1CB7EB" cx="24" cy="24" r="24"></circle>
            <path d="M36.8,15.4 C35.9,15.9 34.8,16.2 33.8,16.3 C34.9,15.6 35.7,14.5 36.1,13.2 C35.1,13.8 34,14.3 32.7,14.6 C31.7,13.5 30.4,12.8 28.9,12.8 C26,12.8 23.6,15.3 23.6,18.5 C23.6,18.9 23.6,19.4 23.7,19.8 C19.3,19.6 15.4,17.3 12.8,13.9 C12.3,14.7 12.1,15.7 12.1,16.8 C12.1,18.8 13,20.5 14.4,21.5 C13.5,21.5 12.7,21.2 12,20.8 C12,20.8 12,20.9 12,20.9 C12,23.6 13.8,25.9 16.2,26.5 C15.8,26.6 15.3,26.7 14.8,26.7 C14.5,26.7 14.1,26.7 13.8,26.6 C14.5,28.9 16.4,30.5 18.7,30.5 C16.9,32 14.6,32.9 12.2,32.9 C11.8,32.9 11.4,32.9 10.9,32.8 C13.2,34.4 16,35.4 19,35.4 C28.7,35.4 34,26.8 34,19.3 C34,19.1 34,18.8 34,18.6 C35.2,17.6 36.1,16.6 36.8,15.4 Z" id="Shape" fill="#FFFFFF"></path>
        </g>
    </g>
</svg>
